X: 1
T: The Hatchlings
R: jig
M: 6/8
L: 1/8
K: Edor
|:E/F/GA Bgf|eEF G2F|E/F/GA B2A|Bcd DGF|
E/F/GA B2A|Bgf efg|B3 AFG|1AGF E2 D:|2AGF E2 f||
|:g2b agf|gfe Bef|g2b agf|edc def|
g2b agf|gef gab|B3 AFG|1AGF E2 f:|2AGF E2 D||

